svgs/light/square-up.svg

<svg xmlns="http://www.w3.org/2000/svg" viewBox="0 0 448 512"><!-- Font Awesome Pro 6.0.0-alpha2 by @fontawesome - https://fontawesome.com License - https://fontawesome.com/license (Commercial License) --><path d="M384 32H64C28.654 32 0 60.654 0 96V416C0 451.346 28.654 480 64 480H384C419.346 480 448 451.346 448 416V96C448 60.654 419.346 32 384 32ZM416 416C416 433.645 401.645 448 384 448H64C46.355 448 32 433.645 32 416V96C32 78.355 46.355 64 64 64H384C401.645 64 416 78.355 416 96V416ZM252.281 123.719C237.156 108.594 211.031 108.391 195.531 123.922L103.031 219.719C91.562 231.203 88.156 248.312 94.344 263.312C100.562 278.312 115.062 288 131.312 288H160V360C160 382.062 177.938 400 200 400H248C270.062 400 288 382.062 288 360V288H316.688C332.938 288 347.438 278.312 353.656 263.312C359.844 248.359 356.469 231.312 345.094 219.828L252.281 123.719ZM316.688 256H256V360C256 364.406 252.406 368 248 368H200C195.594 368 192 364.406 192 360V256H131.312C124.898 256 120.057 247.952 125.844 242.141L218.344 146.344C222.505 142.139 227.876 144.548 229.469 146.141L322.156 242.141L322.344 242.344C327.194 247.194 324.121 256 316.688 256Z"/></svg>

<svg xmlns="http://www.w3.org/2000/svg" viewBox="0 0 448 512"><!--! Font Awesome Pro 6.0.0-alpha3 by @fontawesome - https://fontawesome.com License - https://fontawesome.com/license (Commercial License) --><path d="M384 32H64C28.65 32 0 60.65 0 96v320c0 35.35 28.65 64 64 64h320c35.35 0 64-28.65 64-64V96C448 60.65 419.3 32 384 32zM416 416c0 17.64-14.36 32-32 32H64c-17.64 0-32-14.36-32-32V96c0-17.64 14.36-32 32-32h320c17.64 0 32 14.36 32 32V416zM252.3 123.7C237.2 108.6 211 108.4 195.5 123.9l-92.5 95.8C91.56 231.2 88.16 248.3 94.34 263.3C100.6 278.3 115.1 288 131.3 288H160v72c0 22.06 17.94 40 40 40h48c22.06 0 40-17.94 40-40V288h28.69c16.25 0 30.75-9.688 36.97-24.69c6.188-14.95 2.812-32-8.562-43.48L252.3 123.7zM316.7 256H256v104c0 4.406-3.594 8-8 8h-48C195.6 368 192 364.4 192 360V256H131.3C124.9 256 120.1 247.1 125.8 242.1l92.5-95.8c4.162-4.205 9.532-1.796 11.12-.2031l92.69 96C327 246.1 324.1 256 316.7 256z"/></svg>
